X:303
T: Der Reiter und sein Liebchen (53a), S. 167
N: T0192V
O: Luxemburg
S: Singendes Volk, Esch-Alzette 1937 posth.]
N: Kntzig
R: Liebeslieder]
M: 3/4
L: 1/16
K: G
D4 | G6F2B4 | A6G2A4 | B6c2B4 | A4z4
D4 | G6F2B4 | A6G2A4 | B6c2B4 | A4z4
G2B2 | d6d2d2c2 | B6A2
G4 | A6G2D4 | G2B2d4
d4 | e6c2c2ee | d6B2
B4 | c6B2A4 | G4z4

@@@ Tune index: 8357
